X:52
T:Miss Dawes's Delight
M:2/4
L:1/8
B:Thompson's Compleat Collection of 200 Favourite Country Dances, vol. 3 (London, 1773)
Z:Transcribed and edited by Flynn Titford-Mock, 2007
Z:abc's:AK/Fiddler's Companion
K:G
G>B d>B | "tr"g3e | d>B A>G | A>AA>A | G>B d>B | "tr"g3e | d>cB>A | G4 :|
|: D>F A>F | "tr"d3f | ed^cB | "tr"A3 G | FD cA | "tr"B>d g2 | e>cB>A | G4 :|

